!!!!SEGMENT: pl-wtm--r-251-n--002_noskowski-zygmunt--pierwsi-kurzy-pialy.krn
!!!cenid: 18xx:2161
!!!COM: Noskowski, Zygmunt
!!!COM-rismid: pe106604
!!!CDT: 1846/05/02-1909/07/23
!!!CNT: Polish
!!!OTL: Pierwsi kurzy piały
!!!PDT:
!!!AGN: Secular
!!!SMS-siglum: PL-Wtm
!!!SMS-shelfmark: R 251/N
!!!SMS-shelfwork: 002 W
!!!SMS-variant:
!!!SMS-altvar:
!!!NIFC-rismid: 1001147372
!!!URL-scan: http://repozytorium.nifc.pl/skany/pl-wtm-nut--r251n
!!!ONB-nifc: UWAGA: utwory w zbiorze: 1. Miesiączek zaświecił, 2. Pierwsi kurzy piały
!!!OMD: Moderato cantabile
**kern	**dynam	**kern	**text	**text	**text	**dynam
*part2	*part2	*part1	*part1	*part1	*part1	*part1
*staff2	*	*staff1	*staff1	*staff1	*staff1	*
*I"Basy	*	*I"Tenory	*	*	*	*
*clefF4	*	*clefG2	*	*	*	*
*	*	*ITrd7c12	*	*	*	*
*k[]	*	*k[]	*	*	*	*
*a:	*	*a:	*	*	*	*
*M3/4	*	*M3/4	*	*	*	*
*>[A,A,A]	*>[A,A,A]	*>[A,A,A]	*>[A,A,A]	*>[A,A,A]	*>[A,A,A]	*>[A,A,A]
=1	=1	=1	=1	=1	=1	=1
*>A	*>A	*>A	*>A	*>A	*>A	*>A
*^	*	*^	*	*	*	*
!	!	!LO:DY:a:rj	!	!LO:TX:a:t=P:problem:dynamika na pięciolinii	!	!	!	!LO:DY:a:rj
!	!	!	!	!LO:TX:a:t=Dwie pieśni ludowe \nułożył Z. Noskowski	!	!	!	!
8F/	8F\	mf	8A/	8A\	1._Pier-	2._Choć-	3._Stał	mf
8E/	8E\	.	8B/	8G#X\	-wsi	-bym	Ja-	.
4E/	4AA\	.	4c/	4A\	ku-	o-	-sio	.
4E/	4BB\	.	4d/	4A\	-rzy	-two-	go-	.
=2	=2	=2	=2	=2	=2	=2	=2	=2
4E/	4C\	.	4e/	4A\	pia-	-rzy-	-dzi-	.
(4.F/	(4.F\	.	2A/	2A\	-ły,	-ła,	-nę,	.
8G/)	8E\)	.	.	.	.	.	.	.
=3	=3	=3	=3	=3	=3	=3	=3	=3
8.A/	8.D\	.	8.f/	8.d\	Jesz-	Kie-	Stój-	.
16G/	16E\	.	16a/	16c#X\	-cze	-dy	-że	.
4A/	4F\	.	4a/	4d\	nie	nie	jesz-	.
8A/	8E\	.	8g/	8d\	był	mam	-cze	.
8A/	8D\	.	8f/	8d\	dzień	łu-	i	.
=4	=4	=4	=4	=4	=4	=4	=4	=4
4A/	(>8C\L	.	4e/	4e\	bia-	-czy-	chwi-	.
.	8E\J)	.	.	.	.	.	.	.
2A/	(4.A\	.	2A/	2A\	-ły	-wa	-lę	.
.	8G\)	.	.	.	.	.	.	.
!!LO:LB:g=original
=5	=5	=5	=5	=5	=5	=5	=5	=5
!	!	!LO:DY:b:rj	!	!	!	!	!	!LO:DY:b:rj
8.A/	8.F\	f	8.f/	8.c\	Jesz-	Kie-	Stój-	f
16c/	16D\	.	16a/	16f\	-cze	-dy	-że	.
4B/	4G\	.	4a/	4f\	nie	nie	jesz-	.
8B/	8G\	.	8g/	8d\	był	mam	-cze	.
8G/	8BB\	.	8f/	8d\	dzień	łu-	i	.
=6	=6	=6	=6	=6	=6	=6	=6	=6
(8G/L	(4C\	.	4e/	(8c\L	bia-	-czy-	chwi-	.
8G#X/J	.	.	.	8B\J)	.	.	.	.
4A/)	4F\)	.	2A/	2A\	-ły	-wa	-lę	.
4F/	(8D\L	.	.	.	.	.	.	.
.	8BB\J)	.	.	.	.	.	.	.
=7	=7	=7	=7	=7	=7	=7	=7	=7
4A/	4AA\	.	4e/	4c\	O-	O-	Niech-	.
8F/	8BB\	.	8d/	8A\	-twórz	-twórz	-że	.
8E/	8C\	.	8c/	8A\	na-	na-	ja	.
8F/	8D\	.	8B/	8B\	-dob-	-dob-	pa-	.
8F/	8F\	.	8A/	8A\	-na	-na	-ni	.
=8	=8	=8	=8	=8	=8	=8	=8	=8
4G#X/	4E\	.	8c/L	8c\L	Ma-	Ma-	mat-	.
.	.	.	8B/J	8B\J	.	.	.	.
2E/	2E\	.	2E/	2E\	-ryś	-ryś	-ce	.
=9	=9	=9	=9	=9	=9	=9	=9	=9
8F#X/	8D#X\	.	8B/	8A\	Do	I	Za-	.
8D#X/	8BB\	.	8c/	8A\	no-	tak	-pas-	.
4.E/	4.E\	.	4.B/	4.G#X\	-wej	po-	-ki	.
8E/	8Dn\	.	8G#X/	8G#\	ko-	-sie-	do-	.
!!LO:LB:g=original
=10	=10	=10	=10	=10	=10	=10	=10	=10
2E/	2C\	.	2A/	2A\	-mo-	-dzi-	-szy-	.
4A/	4AA\	.	4e/	4c\	-ry	-wa	-ję.	.
=11	=11	=11	=11	=11	=11	=11	=11	=11
!	!	!LO:DY:a:rj	!	!	!	!	!	!LO:DY:b:rj
4F/	4D\	mf	4e/	4c\	O-	O-	Niech-	mf
8F/	8D\	.	8d/	8B\	-twórz	-twórz	-że	.
8G/	8E\	.	8c/	8c\	na-	na-	ja	.
8G/	8G\	.	8B/	8B\	-dob-	-dob-	pa-	.
8F/	8F\	.	8A/	8A\	-na	-na	-ni	.
=12	=12	=12	=12	=12	=12	=12	=12	=12
2E/	2E\	.	(<8c/L	4G\	Ma-	Ma-	mat-	.
.	.	.	8B/J)	.	.	.	.	.
.	.	.	2E/	2E\	-ryś	-ryś	-ce	.
8D/L	8D\L	.	.	.	.	.	.	.
8C/J	8C\J	.	.	.	.	.	.	.
=13	=13	=13	=13	=13	=13	=13	=13	=13
8D/	8GG\	.	8B/	8G\	Do	I	Za-	.
8E/	8C\	.	8c/	8G\	no-	tak	-pas-	.
4.E/	4.E\	.	4.B/	4.G#X\	-wej	po-	-ki	.
8E/	8D\	.	8G#X/	8G#\	ko-	-sie-	do-	.
!!LO:LB:g=original
=14	=14	=14	=14	=14	=14	=14	=14	=14
*	*	*^	*	*	*	*	*	*^
!	!	!LO:HP:a	!	!	!	!	!	!	!	!LO:HP:b
(4F/	(4D\	>	>	2A/	2A\	-mo-	-dzi-	-szy-	>	>
!LO:TX:b:t=rall	!	!	!	!LO:TX:a:t=rall	!	!	!	!	!	!
4E/)	4C\)	.	,	.	.	.	.	.	.	.
!	!	!	!	!LO:TX:t=P:problem:klamra przy tekście słownym	!	!	!	!	!	!
4D/	4BB\	]	]	4A/	4F\	-ry.	-wa.	-ję.	]	]
=15	=15	=15	=15	=15	=15	=15	=15	=15	=15	=15
!	!	!LO:DY:b:rj	!	!	!	!	!	!	!	!LO:DY:b:rj
!	!	!LO:HP:a	!	!	!	!	!	!	!	!LO:HP:b
(4E/	[2.AA\	p <	<	(4c/	(4A\	.	Ach!	.	<	p <
!	!	!LO:HP:a	!	!	!	!	!	!	!	!LO:HP:b
[2A/)	.	[ >	[ >	[2e/)	[2c\)	.	.	.	[ >	[ >
=16	=16	=16	=16	=16	=16	=16	=16	=16	=16	=16
2A/]	2AA\]	]	]	2e/]	2c\]	.	.	.	]	]
4r	4ryy	.	.	4r	4ryy	.	.	.	]	]
*	*	*v	*v	*	*	*	*	*	*v	*v
*v	*v	*	*	*	*	*	*	*
*	*	*v	*v	*	*	*	*
=:|!	=:|!	=:|!	=:|!	=:|!	=:|!	=:|!
*-	*-	*-	*-	*-	*-	*-
!!!system-decoration: {(s1,s2)}
!!!RDF**kern: > = above
!!!RDF**kern: < = below
!!!ENC: Andrzej Kubiczek
!!!END: 2021-05-23
